X:236
T:Nymph,The JJo.043
S:J.Jones MS,1801,N.Shrops.
A:N Shropshire
Z:Neil Brookes 2006
M:2/4
L:1/8
Q:1/4=140
K:Gmaj
GG/2F/2 GD|GBdB|cAGF|G/2F/2G/2A/2 GD|GG/2F/2 GD|GBdB|cAGF|G4::!
cBB2|AGG2|FGAB|c/2d/2c/2B/2 A2|cBB2|AGG2|Fc B/2A/2G/2F/2|{F}G4::!
N:originally a 48 polka in C

